icons/desktop/16/svg/translate-16.svg

<svg width="20" height="20" viewBox="0 0 20 20" fill="none" xmlns="http://www.w3.org/2000/svg">
<path fill-rule="evenodd" clip-rule="evenodd" d="M7.75098 1.99902V3.49902L7.79492 3.51855C9.53892 3.55255 11.282 3.67945 13.001 3.93945V5.4541C12.342 5.3511 11.6787 5.27115 11.0137 5.20215L10.583 6.41504C10.033 7.96095 9.15185 9.38966 8.04395 10.5996C9.00485 11.5385 10.1078 12.2818 11.3066 12.7998C11.3112 12.8007 11.3167 12.8083 11.3174 12.8096L13.165 8.45703C13.282 8.18019 13.5537 8.00019 13.8545 8H14.6836C14.9846 8 15.256 8.18003 15.374 8.45703L19.001 17H17.3711L16.3096 14.5H12.2295L11.1689 17H9.53906L10.7344 14.1846C9.34737 13.5886 8.07187 12.7306 6.96387 11.6416C5.78187 12.6446 4.44298 13.4054 3.00098 13.9014V12.3213C4.06993 11.8923 5.0679 11.2931 5.96387 10.5361C5.11597 9.46926 4.44133 8.26223 3.98633 6.9834L3.81445 6.5H5.4082C5.78917 7.5659 6.35003 8.57077 7.04395 9.4707C7.96686 8.43176 8.70397 7.22099 9.16895 5.91309L9.46777 5.07324C6.64084 4.89326 3.78991 5.01611 1.00098 5.4541V3.93945C2.74598 3.67545 4.51611 3.54663 6.28711 3.51562L6.25098 3.49902V1.99902H7.75098ZM12.8662 13H15.6719L14.2686 9.69434L12.8662 13Z" fill="black"/>
</svg>

<!-- This Source Code Form is subject to the terms of the Mozilla Public
   - License, v. 2.0. If a copy of the MPL was not distributed with this
   - file, You can obtain one at http://mozilla.org/MPL/2.0/. -->
<svg xmlns="http://www.w3.org/2000/svg" width="20" height="20" fill="context-fill" fill-opacity="context-fill-opacity" viewBox="0 0 20 20">
    <path fill-rule="evenodd" d="M7.751 1.999v1.5l.044.02c1.744.034 3.487.16 5.206.42v1.515a39 39 0 0 0-1.987-.252l-.431 1.213A12.4 12.4 0 0 1 8.044 10.6a10.8 10.8 0 0 0 3.263 2.2c.004 0 .01.008.01.01l1.848-4.353a.75.75 0 0 1 .69-.457h.829a.75.75 0 0 1 .69.457L19.001 17h-1.63l-1.061-2.5h-4.08L11.169 17h-1.63l1.195-2.815a12.3 12.3 0 0 1-3.77-2.543A12.3 12.3 0 0 1 3 13.902v-1.58a10.8 10.8 0 0 0 2.963-1.786 12.4 12.4 0 0 1-1.978-3.553L3.814 6.5h1.594a10.9 10.9 0 0 0 1.636 2.97 10.9 10.9 0 0 0 2.125-3.557l.299-.84A38.8 38.8 0 0 0 1 5.454V3.94a40 40 0 0 1 5.286-.423l-.036-.017v-1.5zM12.866 13h2.806l-1.403-3.306z" clip-rule="evenodd" />
</svg>
